X: 21329
T: Ker Eon
R: polka
M: 2/4
K: Aminor
|:e2 de|cB A2|Bc {AB}AG|A2 A2:|
e2 de|cB A/B/c|de fg|ed e2|
e2 de|cB AB|cd BG|A2 A2|
e2 de|cB A/B/c|de fa|gf e2|
d2 cd|BA GA|Bc AG|A2 A2|

